X: 632
M: C
L: 1/16
K: G
V: 1
c3AB3G TA3GE2e2 | d3cTB3A B2G2-G2 :|
|: (e2 |\
g2)d2g2B2 TA3GE2(e2 | g3)dg3B g3dg3a |\
(bage g3)B TA3GE2e2 | d3cTB3A B3G-G2 :|
|: a2 |\
ggg2 b3g Ta3ge2a2 | ggg2 b3g a3gb3g |\
(baga b3)g Ta3ge2g2 | d3cTB3A B3G-G2 :|
|: (EF |\
V: 2 clef=bass middle=d
z2 |\
g4g4 e4e4 | g4g4 g4g4 |\
a4g4 e4e4 | d4d4 G4G2 :|\
|: z2 |\
g4g4 a4a4 |
g4g4 g4g4 |\
g4g4 e4e4 | d4d4 G4G2 :|\
|: z2 |\
g4g4 a4a4 | g4g4 g4g4 |
g4g4 e4e4 |
d4d4 G4G2 :|\
|: z2 |\

